src/assets/icons/notesIcon.svg

<svg class="heart" width="30" height="22" viewBox="0 0 30 22" fill="none" xmlns="http://www.w3.org/2000/svg">
<path fill-rule="evenodd" clip-rule="evenodd" class="heart-fill" d="M10.2 0C5.73645 0 2 3.39619 2 7.72633C2 8.16116 2.02551 8.58572 2.07412 9H4.09171C4.0316 8.58611 4 8.16155 4 7.72633C4 4.62677 6.71065 2 10.2 2C11.7121 2 13.1721 2.77512 14.3585 3.76716L15 4.30351L15.6415 3.76716C16.8279 2.77512 18.2879 2 19.8 2C23.2893 2 26 4.62692 26 7.72651C26 8.16167 25.9684 8.58617 25.9083 9H27.9259C27.9745 8.58577 28 8.16128 28 7.72651C28 3.3964 24.2636 0 19.8 0C17.9471 0 16.2913 0.793707 15 1.73211C13.7087 0.793707 12.0529 0 10.2 0ZM26.6558 13H24.3314C23.63 14.0616 22.7556 15.0184 21.8032 15.8706C19.4759 17.9533 16.7992 19.3025 15.4622 19.9007C15.1663 20.0331 14.8337 20.0331 14.5378 19.9007C13.2008 19.3025 10.5241 17.9532 8.19681 15.8705C7.24447 15.0183 6.37005 14.0615 5.66872 13H3.3443C4.25314 14.7119 5.5274 16.1656 6.86311 17.3609C9.41064 19.6406 12.2987 21.0899 13.721 21.7263C14.5366 22.0912 15.4634 22.0912 16.279 21.7263C17.7013 21.0899 20.5894 19.6407 23.1369 17.361C24.4726 16.1657 25.7469 14.7119 26.6558 13Z" fill="#212135"/>
<path d="M1 11H9L11 7L15 14L19 9L21 11H29" class="heart-stroke" stroke="#212135" stroke-width="2" stroke-linecap="round" stroke-linejoin="round"/>
</svg>

<svg class="heart" width="30" height="22" fill="none" xmlns="http://www.w3.org/2000/svg"><path fill-rule="evenodd" clip-rule="evenodd" class="heart-fill" d="M10.2 0C5.736 0 2 3.396 2 7.726c0 .435.026.86.074 1.274h2.018A8.85 8.85 0 0 1 4 7.726C4 4.626 6.71 2 10.2 2c1.512 0 2.972.775 4.159 1.767l.641.537.642-.537C16.828 2.775 18.288 2 19.8 2 23.29 2 26 4.627 26 7.727c0 .435-.032.86-.092 1.273h2.018c.049-.414.074-.839.074-1.273C28 3.397 24.264 0 19.8 0c-1.853 0-3.509.794-4.8 1.732C13.709.794 12.053 0 10.2 0Zm16.456 13H24.33c-.701 1.062-1.575 2.018-2.528 2.87-2.327 2.083-5.004 3.432-6.34 4.03a1.125 1.125 0 0 1-.925 0c-1.337-.598-4.014-1.947-6.341-4.03-.953-.852-1.827-1.808-2.528-2.87H3.344c.91 1.712 2.183 3.166 3.52 4.36 2.547 2.28 5.435 3.73 6.857 4.366a3.125 3.125 0 0 0 2.558 0c1.422-.636 4.31-2.085 6.858-4.365 1.336-1.195 2.61-2.65 3.519-4.361Z" fill="#212135"/><path d="M1 11h8l2-4 4 7 4-5 2 2h8" class="heart-stroke" stroke="#212135" stroke-width="2" stroke-linecap="round" stroke-linejoin="round"/></svg>
